X:1
T:James Gibb editions
T:Il prigioniero - Gastoldi
%%score [ 1 2 3 ]
L:1/8
Q:1/4=108
M:2/2
K:F
V:1 treble nm="Soprano" snm="S"
V:2 treble nm="Alto" snm="A"
V:3 bass nm="Bass" snm="B"
V:1
"^Il prigioniero""^Giovanni Gastoldi\n(1555-1622)" c2 cB c2 d2 | c4 c2 cc | B2 B2 B2 A2 | %3
w: O vez- zo- set- ta~~e|bel- la C'hai fra|tut- te~~il pri- mo~~o-|
w: Vuoi tu d'a- mor ru-|bel- la~~Es- ser sem-|pre? Hai tor- to~~a|
 G4 z2 GA | B2 B2 B2 A2 |[M:2/2] G2 cB A2 GF | G2 F2 F2 E2 |1 F8 :|2 F4 |: z2 c2 | A2 c2 c2 =B2 | %11
w: nor, Non mi|far mo- rir d'a-|mor, Non mi far, Non mi|far mo- rir d'a-|mor.|mor.|.So|ben ch'in- de- gno|
w: fé: Che di-|rà cias- cun di|te? Che di- rà Che di-|rà cias- cun di|te?|te?|Ma|veg- gio~~il tuo pen-|
 c2 A2 B2 A2 | G2 c2 c2 =B2 | c4 z2 AB | c2 A2 B2 c2 | d2 (dc) B2 cB | A2 B2 G2 G2 | A4 :| %18
w: son Che del tuo|cor mi fac- ci|don Ma gra-|di- sci~~il mio ser-|vir Che mi fai Che mi|fai cru- del mo-|rir.|
w: sier Di già mu-|ta- to~~è for- se|ver? Se mi|vuoi d'af- fan- ni|trar Sem\- * pre, Sem- pre~a-|mor vo- glio lo-|dar.|
V:2
 A2 AG A2 B2 | A4 A2 AA | G2 G2 G2 F2 | E4 z2 EE | F2 G2 F2 F2 |[M:2/2] E2 AG F2 ED | %6
w: O vez- zo- set- ta~~e|bel- la C'hai fra|tut- te~~il pri- mo~~o-|nor, Non mi|far mo- rir d'a-|mor, Non mi far, Non mi|
w: Vuoi tu d'a- mor ru-|bel- la~~Es- ser sem-|pre? Hai tor- to~~a|fé: Che di-|rà cias- cun di|te? Che di- rà Che di-|
 E2 F2 G2 G2 |1 A8 :|2 A4 |: z2 A2 | F2 G2 F2 D2 | E2 F2 F2 F2 | E2 E2 D2 D2 | E4 z2 FG | %14
w: far mo- rir d'a-|mor.|mor,|.So|ben ch'in- de- gno|son Che del tuo|cor mi fac- ci|don Ma gra-|
w: rà cias- cun di|te?|te?|Ma|veg- gio~~il tuo pen-|sier Di già mu-|ta- to~~è for- se|ver? Se mi|
 A2 F2 G2 A2 | B2 BA G2 AG | F2 D2 E2 E2 | F4 :| %18
w: di- sci~~il mio ser-|vir Che mi fai Che mi|fai cru- del mo-|rir.|
w: vuoi d'af- fan- ni|trar Sem\- * pre, Sem- pre~a-|mor vo- glio lo-|dar.|
V:3
 F,2 F,G, F,2 B,,2 | F,4 F,2 F,F, | _E,2 E,2 E,2 D,2 | C,4 z2 C,C, | B,,2 B,,2 B,,2 F,,2 | %5
w: O vez- zo- set- ta~~e|bel- la C'hai fra|tut- te~~il pri- mo~~o-|nor, Non mi|far mo- rir d'a-|
w: Vuoi tu d'a- mor ru-|bel- la~~Es- ser sem-|pre? Hai tor- to~~a|fé: Che di-|rà cias- cun di|
[M:2/2] C,4 z2 C,D, | C,2 A,,2 B,,2 C,2 |1 F,,8 :|2 F,,4 |: z2 F,2 | F,2 E,2 D,2 G,2 | %11
w: mor, Non mi|far mo- rir d'a-|mor.|mor.|.So|ben ch'in- de- gno|
w: te? Che di-|rà cias- cun di|te?|te?|Ma|veg- gio~~il tuo pen-|
 C,2 F,2 D,2 F,2 | C,2 E,2 ^F,2 G,2 | C,4 z2 D,G, | F,2 F,2 _E,2 C,2 | B,,4 z2 C,C, | %16
w: son Che del tuo|cor mi fac- ci|don Ma gra-|di- sci~~il mio ser-|vir Che mi|
w: sier Di già mu-|ta- to~~è for- se|ver? Se mi|vuoi d'af- fan- ni|trar Sem- pre~a-|
 D,2 B,,2 C,2 C,2 | F,,4 :| %18
w: fai cru- del mo-|rir.|
w: mor vo- glio lo-|dar.|

